X:1
T:Title
%%score { ( 1 3 ) | ( 2 4 ) }
L:1/8
Q:1/4=100
M:4/4
K:D
V:1 treble nm="Grand Piano"
V:3 treble 
V:2 bass 
V:4 bass 
V:1
 F3 G A2 F2 | B3 A G2 F2 | [Dd]3 [Ec] [B,FB]2 [=CFA]2 | [CEA]2 [DE^G]2 [CEA]4 | E3 E A2 D2 | %5
w: Hanry~Farmer * * *|||||
 C2 [CG]2 G2 F2 | E3 E A2 D2 | C2 [CG]2 G2 F2 | B4 A2 z2 | [Gc]4 [Fd]2 z2 | z4 [CE]4 | D8 |] %12
w: |||||||
V:2
 [D,A,D]3 [E,A,C] [F,A,D]2 [D,A,D]2 | [G,D]3 [F,A,D] [E,A,C]2 [D,A,D]2 | %2
 [B,,B,]3 [C,^A,] D,2 ^D,2 | E,2 E,2 A,,4 | [G,A,C]3 [G,A,C] [F,A,D]2 [F,A,]2 | %5
 [E,A,]2 [A,,A,]2 [D,A,D]2 [D,A,D]2 | [G,A,C]3 [G,A,C] [F,A,D]2 [F,A,]2 | %7
 [E,A,]2 [A,,A,]2 [D,A,D]2 [D,A,D]2 | [G,D]4 [F,A,D]2 z2 | [E,A,]4 [D,A,]2 z2 | [A,,A,]4 A,2 z2 | %11
 [D,F,]8 |] %12
V:3
 x8 | x8 | x8 | x8 | x8 | x8 | x8 | x8 | x8 | x8 | [DF]4 z2 G,2 | x8 |] %12
V:4
 x8 | x8 | x8 | x8 | x8 | x8 | x8 | x8 | x8 | x8 | z4 A,,4 | x8 |] %12

